X:34
T:Salt Creek
M:4/4
R:reel
Q:1/2=120
L:1/8
K:A
E2|"A"A3AA2A2|"G"BABc "D"d3A| "A"BA=GA BAGA|"G"BAG2E4|
"A"A3AA2A2|"G"BABc "D"d4 |"A"edef =gfed|"A"(3cdc A2A2::
e2|"A"ea2a a2a2|"A"aba=g e2ef|"G"=g2ga gede|"G"=gfga gedg|
"A"ea2a a2a2|"A"aba=g e2ef|"G"=gfga gfed|"A"(3cdc A2A2:|
%%newpage
